Catalina-light/actions/16/link.svg

<svg xmlns="http://www.w3.org/2000/svg" width="16" height="16" viewBox="0 0 16 16">
 <defs>
  <style id="current-color-scheme" type="text/css">
   .ColorScheme-Text { color:#5c616c; } .ColorScheme-Highlight { color:#5294e2; }
  </style>
 </defs>
 <path style="fill:currentColor" class="ColorScheme-Text" d="M 3 1 C 1.892 1 1 1.892 1 3 L 1 13 C 1 14.108 1.892 15 3 15 L 13 15 C 14.108 15.00002 15 14.108 15 13 L 15 9 L 13 8.9941406 L 13 13 L 3 13 L 3 3 L 7 3 L 7 1 L 3 1 z M 8 1 L 8 3 L 11.585938 3 L 7.0917969 7.4941406 L 6.3847656 8.2011719 L 6.390625 8.2070312 A 1 1 0 0 0 5.9902344 9 A 1 1 0 0 0 6.9902344 10 A 1 1 0 0 0 7.7832031 9.609375 L 7.7890625 9.6152344 L 8.4960938 8.9082031 L 12.990234 4.4140625 L 12.990234 8 L 14.990234 8.0058594 L 14.990234 1 L 8 1 z"/>
</svg>

<svg width="16" height="16" viewBox="0 0 16 16" xmlns="http://www.w3.org/2000/svg">
<defs>
<style id="current-color-scheme" type="text/css">.ColorScheme-Text { color:#5c616c; } .ColorScheme-Highlight { color:#5294e2; }</style>
</defs>
<path class="ColorScheme-Text" d="m3 1c-1.108 0-2 0.892-2 2v10c0 1.108 0.892 2 2 2h10c1.108 2e-5 2-0.892 2-2v-4l-2-0.0058594v4.0059h-10v-10h4v-2h-4zm5 0v2h3.5859l-5.2012 5.2012 0.0058594 0.0058593a1 1 0 0 0-0.40039 0.79297 1 1 0 0 0 1 1 1 1 0 0 0 0.79297-0.39062l0.0058594 0.0058594 5.2012-5.2012v3.5859l2 0.0058594v-7.0059h-6.9902z" fill="currentColor"/>
</svg>
